; generated by PrusaSlicer 2.3.3+linux-x64 on 2022-08-11 at 11:47:35 UTC

; 

; external perimeters extrusion width = 0.45mm
; perimeters extrusion width = 0.45mm
; infill extrusion width = 0.45mm
; solid infill extrusion width = 0.45mm
; top infill extrusion width = 0.40mm
; support material extrusion width = 0.38mm
; first layer extrusion width = 0.42mm

M201 X500 Y500 Z100 E5000 ; sets maximum accelerations, mm/sec^2
M203 X500 Y500 Z10 E60 ; sets maximum feedrates, mm/sec
M204 P500 R1000 T500 ; sets acceleration (P, T) and retract acceleration (R), mm/sec^2
M205 X8.00 Y8.00 Z0.40 E5.00 ; sets the jerk limits, mm/sec
M205 S0 T0 ; sets the minimum extruding and travel feed rate, mm/sec
M107
;TYPE:Custom
G90 ; use absolute coordinates
M83 ; extruder relative mode
M140 S60 ; set final bed temp
M104 S150 ; set temporary nozzle temp to prevent oozing during homing
G4 S10 ; allow partial nozzle warmup
G28 ; home all axis
G1 Z50 F240
G1 X2 Y10 F3000
M104 S215 ; set final nozzle temp
M190 S60 ; wait for bed temp to stabilize
M109 S215 ; wait for nozzle temp to stabilize
G1 Z0.28 F240
G92 E0
G1 Y140 E10 F1500 ; prime the nozzle
G1 X2.3 F5000
G92 E0
G1 Y10 E10 F1200 ; prime the nozzle
G92 E0
G21 ; set units to millimeters
G90 ; use absolute coordinates
M83 ; use relative distances for extrusion
; Filament gcode
;LAYER_CHANGE
;Z:0.2
;HEIGHT:0.2
;BEFORE_LAYER_CHANGE
G92 E0
;0.2


G1 E-5.00000 F3600.000
G1 Z0.200 F9000.000
;AFTER_LAYER_CHANGE
;0.2
G1 X133.199 Y55.859
G1 E5.00000 F2400.000
M204 S500
;TYPE:Skirt
;WIDTH:0.42
G1 F1200.000
G1 X133.997 Y56.181 E0.02697
G1 X183.386 Y84.255 E1.78124
G1 X187.337 Y86.625 E0.14447
G1 X191.188 Y89.477 E0.15027
G1 X194.706 Y92.666 E0.14886
G1 X197.897 Y96.187 E0.14900
G1 X200.758 Y100.049 E0.15070
G1 X203.164 Y104.068 E0.14687
G1 X205.131 Y108.219 E0.14401
G1 X206.837 Y112.987 E0.15879
G1 X207.948 Y117.439 E0.14387
G1 X208.644 Y122.131 E0.14871
G1 X208.877 Y126.873 E0.14885
G1 X208.656 Y131.456 E0.14387
G1 X207.912 Y136.470 E0.15893
G1 X206.792 Y140.925 E0.14402
G1 X205.196 Y145.386 E0.14857
G1 X203.166 Y149.678 E0.14886
G1 X200.810 Y153.616 E0.14387
G1 X197.854 Y157.616 E0.15595
G1 X194.706 Y161.084 E0.14687
G1 X191.185 Y164.275 E0.14900
G1 X187.371 Y167.103 E0.14885
G1 X183.157 Y169.614 E0.15383
G1 X178.858 Y171.629 E0.14885
G1 X174.545 Y173.168 E0.14358
G1 X170.100 Y174.286 E0.14373
G1 X165.253 Y175.018 E0.15368
G1 X160.643 Y175.249 E0.14473
G1 X70.491 Y175.252 E2.82666
G1 X65.783 Y175.021 E0.14779
G1 X60.900 Y174.286 E0.15482
G1 X56.455 Y173.168 E0.14373
G1 X51.985 Y171.569 E0.14885
G1 X47.697 Y169.541 E0.14872
G1 X43.759 Y167.185 E0.14387
G1 X39.759 Y164.229 E0.15595
G1 X36.291 Y161.081 E0.14687
G1 X33.103 Y157.563 E0.14885
G1 X30.275 Y153.750 E0.14885
G1 X27.834 Y149.678 E0.14886
G1 X25.805 Y145.386 E0.14885
G1 X24.205 Y140.916 E0.14886
G1 X23.052 Y136.311 E0.14885
G1 X22.355 Y131.610 E0.14900
G1 X22.123 Y126.873 E0.14871
G1 X22.356 Y122.131 E0.14886
G1 X23.053 Y117.435 E0.14885
G1 X24.207 Y112.830 E0.14885
G1 X25.806 Y108.360 E0.14885
G1 X27.836 Y104.068 E0.14886
G1 X30.277 Y99.996 E0.14885
G1 X33.146 Y96.134 E0.15084
G1 X36.291 Y92.669 E0.14672
G1 X39.688 Y89.584 E0.14387
G1 X43.709 Y86.596 E0.15709
G1 X47.614 Y84.255 E0.14274
G1 X97.385 Y55.997 E1.79454
G1 X97.998 Y55.813 E0.02004
G1 X98.634 Y55.748 E0.02004
G1 X132.346 Y55.748 E1.05704
G1 X133.140 Y55.851 E0.02509
G1 E-3.50000 F3600.000
;WIPE_START
G1 F7200.000
G1 X133.997 Y56.181 E-0.43626
G1 X135.806 Y57.210 E-0.98874
;WIPE_END
G1 E-0.07500 F3600.000
G1 X55.744 Y79.422 F9000.000
G1 E5.00000 F2400.000
G1 F1200.000
G1 X51.555 Y80.913 E0.13943
G1 X47.158 Y82.982 E0.15236
G1 X42.985 Y85.471 E0.15235
G1 X39.044 Y88.379 E0.15356
G1 X35.408 Y91.662 E0.15358
G1 X32.138 Y95.256 E0.15239
G1 X29.213 Y99.184 E0.15355
G1 X26.697 Y103.365 E0.15299
G1 X24.604 Y107.772 E0.15297
G1 X22.952 Y112.362 E0.15296
G1 X21.759 Y117.092 E0.15296
G1 X21.035 Y121.917 E0.15296
G1 X20.787 Y126.770 E0.15237
G1 X21.016 Y131.643 E0.15295
G1 X21.722 Y136.470 E0.15297
G1 X22.897 Y141.205 E0.15297
G1 X24.538 Y145.820 E0.15357
G1 X26.617 Y150.234 E0.15298
G1 X29.118 Y154.423 E0.15296
G1 X32.017 Y158.347 E0.15297
G1 X35.287 Y161.967 E0.15296
G1 X38.882 Y165.238 E0.15239
G1 X42.967 Y168.267 E0.15946
G1 X47.073 Y170.722 E0.15002
G1 X51.398 Y172.772 E0.15004
G1 X56.188 Y174.484 E0.15949
G1 X60.904 Y175.653 E0.15237
G1 X65.714 Y176.357 E0.15239
G1 X70.625 Y176.588 E0.15417
G1 X75.498 Y176.336 E0.15298
G1 X80.320 Y175.609 E0.15291
G1 X80.989 Y175.440 E0.02162
G1 X82.486 Y175.063 F9000.000
G1 F1200.000
G1 X84.941 Y174.445 E0.07937
G1 X89.428 Y172.844 E0.14938
G1 X91.765 Y171.750 E0.08091
G1 X92.289 Y171.602 E0.01707
G1 X96.258 Y169.724 E0.13768
G1 X100.904 Y168.062 E0.15471
G1 X105.691 Y166.863 E0.15471
G1 X110.572 Y166.139 E0.15472
G1 X115.500 Y165.897 E0.15471
G1 X120.428 Y166.139 E0.15471
G1 X125.309 Y166.863 E0.15472
G1 X130.096 Y168.062 E0.15471
G1 X134.742 Y169.724 E0.15471
G1 X138.711 Y171.602 E0.13767
G1 X139.232 Y171.749 E0.01697
G1 X141.400 Y172.773 E0.07516
G1 X146.169 Y174.478 E0.15881
G1 X148.508 Y175.061 E0.07559
G1 X150.021 Y175.438 F9000.000
G1 F1200.000
G1 X150.812 Y175.635 E0.02555
G1 X155.543 Y176.341 E0.15001
G1 X160.605 Y176.588 E0.15888
G1 X165.476 Y176.339 E0.15295
G1 X170.190 Y175.635 E0.14942
G1 X174.831 Y174.478 E0.14999
G1 X179.427 Y172.844 E0.15292
G1 X183.842 Y170.768 E0.15297
G1 X188.031 Y168.269 E0.15296
G1 X191.956 Y165.371 E0.15297
G1 X195.592 Y162.088 E0.15357
G1 X198.875 Y158.478 E0.15300
G1 X201.882 Y154.424 E0.15827
G1 X204.348 Y150.301 E0.15062
G1 X206.404 Y145.960 E0.15063
G1 X208.097 Y141.225 E0.15766
G1 X209.271 Y136.509 E0.15236
G1 X209.978 Y131.702 E0.15237
G1 X210.213 Y126.809 E0.15358
G1 X209.967 Y121.936 E0.15298
G1 X209.245 Y117.112 E0.15294
G1 X208.065 Y112.417 E0.15178
G1 X206.433 Y107.859 E0.15180
G1 X204.374 Y103.498 E0.15121
G1 X201.893 Y99.342 E0.15177
G1 X198.863 Y95.257 E0.15945
G1 X195.646 Y91.716 E0.15002
G1 X192.089 Y88.488 E0.15062
G1 X188.032 Y85.482 E0.15830
G1 X183.858 Y82.991 E0.15239
G1 X179.462 Y80.920 E0.15238
G1 X175.282 Y79.432 E0.13912
G1 X173.780 Y79.012 F9000.000
G1 F1200.000
G1 X170.099 Y78.097 E0.11894
G1 X167.748 Y77.748 E0.07453
G1 X167.358 Y77.633 E0.01275
G1 X141.822 Y74.397 E0.80706
G1 X141.257 Y74.309 E0.01792
G1 X140.738 Y74.178 E0.01679
G1 X140.250 Y74.004 E0.01625
G1 X139.781 Y73.782 E0.01625
G1 X139.337 Y73.516 E0.01624
G1 X138.920 Y73.207 E0.01625
G1 X138.536 Y72.859 E0.01625
G1 X138.188 Y72.475 E0.01625
G1 X137.880 Y72.059 E0.01625
G1 X137.613 Y71.614 E0.01624
G1 X137.392 Y71.146 E0.01625
G1 X137.217 Y70.658 E0.01626
G1 X137.091 Y70.155 E0.01625
G1 X137.015 Y69.643 E0.01624
G1 X137.005 Y69.434 E0.00655
G1 X136.930 Y58.119 E0.35480
G1 X136.906 Y58.052 E0.00221
G1 X136.713 Y57.509 F9000.000
G1 F1200.000
G1 X136.523 Y56.973 E0.01783
G1 X135.848 Y56.009 E0.03690
G1 X134.635 Y54.990 E0.04967
G1 X133.726 Y54.599 E0.03101
G1 X132.778 Y54.415 E0.03029
G1 X98.253 Y54.411 E1.08251
G1 X96.860 Y54.752 E0.04497
G1 X95.862 Y55.335 E0.03623
G1 X95.002 Y56.179 E0.03777
G1 X94.378 Y57.180 E0.03701
G1 X94.265 Y57.552 E0.01219
G1 X94.105 Y58.076 F9000.000
G1 F1200.000
G1 X94.040 Y58.291 E0.00702
G1 X93.995 Y69.436 E0.34947
G1 X93.985 Y69.643 E0.00649
G1 X93.909 Y70.155 E0.01624
G1 X93.783 Y70.658 E0.01625
G1 X93.608 Y71.146 E0.01626
G1 X93.387 Y71.614 E0.01625
G1 X93.120 Y72.059 E0.01624
G1 X92.812 Y72.475 E0.01625
G1 X92.464 Y72.859 E0.01625
G1 X92.080 Y73.207 E0.01625
G1 X91.663 Y73.516 E0.01625
G1 X91.219 Y73.782 E0.01624
G1 X90.750 Y74.004 E0.01625
G1 X90.262 Y74.178 E0.01625
G1 X89.743 Y74.309 E0.01679
G1 X89.178 Y74.397 E0.01792
G1 X63.642 Y77.633 E0.80706
G1 X63.252 Y77.748 E0.01277
G1 X60.882 Y78.101 E0.07513
G1 X57.240 Y79.007 E0.11766
G1 X55.906 Y79.764 F9000.000
G1 F1200.000
G1 X56.251 Y79.641 E0.01148
G1 X60.946 Y78.473 E0.15171
G1 X63.335 Y78.117 E0.07572
G1 X63.706 Y78.005 E0.01216
G1 X89.231 Y74.770 E0.80672
G1 X89.818 Y74.679 E0.01862
G1 X90.372 Y74.540 E0.01791
G1 X90.895 Y74.353 E0.01742
G1 X91.397 Y74.115 E0.01741
G1 X91.873 Y73.830 E0.01741
G1 X92.319 Y73.499 E0.01741
G1 X92.731 Y73.126 E0.01741
G1 X93.103 Y72.715 E0.01741
G1 X93.434 Y72.269 E0.01741
G1 X93.720 Y71.792 E0.01741
G1 X93.957 Y71.290 E0.01741
G1 X94.144 Y70.767 E0.01742
G1 X94.279 Y70.229 E0.01741
G1 X94.361 Y69.680 E0.01740
G1 X94.372 Y69.446 E0.00734
G1 X94.409 Y58.372 E0.34723
G1 X94.577 Y57.808 E0.01844
G1 X94.767 Y57.267 F9000.000
G1 F1200.000
G1 X95.284 Y56.430 E0.03083
G1 X96.073 Y55.648 E0.03483
G1 X97.026 Y55.091 E0.03461
G1 X98.275 Y54.789 E0.04030
G1 X132.759 Y54.792 E1.08122
G1 X133.632 Y54.965 E0.02791
G1 X134.458 Y55.324 E0.02823
G1 X135.584 Y56.280 E0.04631
G1 X136.198 Y57.166 E0.03379
G1 X136.220 Y57.228 E0.00207
G1 X136.409 Y57.769 F9000.000
G1 F1200.000
G1 X136.564 Y58.213 E0.01474
G1 X136.628 Y69.444 E0.35216
G1 X136.639 Y69.680 E0.00739
G1 X136.721 Y70.229 E0.01740
G1 X136.856 Y70.767 E0.01741
G1 X137.043 Y71.290 E0.01742
G1 X137.280 Y71.792 E0.01741
G1 X137.566 Y72.269 E0.01741
G1 X137.897 Y72.715 E0.01741
G1 X138.269 Y73.126 E0.01741
G1 X138.681 Y73.499 E0.01741
G1 X139.127 Y73.830 E0.01741
G1 X139.603 Y74.115 E0.01741
G1 X140.105 Y74.353 E0.01741
G1 X140.628 Y74.540 E0.01742
G1 X141.182 Y74.679 E0.01791
G1 X141.769 Y74.770 E0.01862
G1 X167.294 Y78.005 E0.80672
G1 X167.665 Y78.117 E0.01213
G1 X170.035 Y78.469 E0.07513
G1 X174.730 Y79.636 E0.15171
G1 X175.124 Y79.776 E0.01310
G1 E-3.50000 F3600.000
;WIPE_START
G1 F7200.000
G1 X174.730 Y79.636 E-0.19843
G1 X172.224 Y79.013 E-1.22657
;WIPE_END
G1 E-0.07500 F3600.000
G1 X177.164 Y80.502 F9000.000
G1 E5.00000 F2400.000
G1 F1200.000
G1 X179.310 Y81.265 E0.07139
G1 X183.673 Y83.320 E0.15122
G1 X187.831 Y85.801 E0.15181
G1 X191.842 Y88.773 E0.15654
G1 X195.373 Y91.976 E0.14947
G1 X198.578 Y95.504 E0.14944
G1 X201.574 Y99.543 E0.15768
G1 X204.037 Y103.668 E0.15062
G1 X206.088 Y108.012 E0.15063
G1 X207.706 Y112.536 E0.15065
G1 X208.877 Y117.195 E0.15063
G1 X209.593 Y121.983 E0.15178
G1 X209.836 Y126.819 E0.15182
G1 X209.602 Y131.674 E0.15241
G1 X208.899 Y136.445 E0.15121
G1 X207.734 Y141.125 E0.15120
G1 X206.059 Y145.807 E0.15590
G1 X204.011 Y150.131 E0.15005
G1 X201.563 Y154.222 E0.14947
G1 X198.590 Y158.232 E0.15651
G1 X195.332 Y161.815 E0.15183
G1 X191.725 Y165.073 E0.15241
G1 X187.830 Y167.950 E0.15181
G1 X183.673 Y170.430 E0.15180
G1 X179.292 Y172.492 E0.15181
G1 X174.731 Y174.114 E0.15177
G1 X170.125 Y175.263 E0.14885
G1 X165.430 Y175.964 E0.14885
G1 X160.595 Y176.211 E0.15179
G1 X155.571 Y175.964 E0.15770
G1 X152.040 Y175.438 E0.11194
G1 E-3.50000 F3600.000
;WIPE_START
G1 F7200.000
G1 X155.007 Y175.880 E-1.42500
;WIPE_END
G1 E-0.07500 F3600.000
G1 X150.066 Y175.061 F9000.000
G1 E5.00000 F2400.000
G1 F1200.000
G1 X146.287 Y174.120 E0.12212
G1 X141.535 Y172.421 E0.15823
G1 X139.363 Y171.394 E0.07532
G1 X138.857 Y171.254 E0.01647
G1 X134.886 Y169.376 E0.13773
G1 X130.205 Y167.701 E0.15587
G1 X125.383 Y166.493 E0.15587
G1 X120.465 Y165.763 E0.15588
G1 X115.500 Y165.519 E0.15587
G1 X110.535 Y165.763 E0.15587
G1 X105.617 Y166.493 E0.15588
G1 X100.795 Y167.701 E0.15587
G1 X96.114 Y169.376 E0.15587
G1 X92.143 Y171.254 E0.13773
G1 X91.634 Y171.395 E0.01655
G1 X89.293 Y172.492 E0.08108
G1 X84.823 Y174.086 E0.14881
G1 X80.943 Y175.063 E0.12545
G1 E-3.50000 F3600.000
;WIPE_START
G1 F7200.000
G1 X83.852 Y174.331 E-1.42500
;WIPE_END
G1 E-0.07500 F3600.000
G1 X78.913 Y175.440 F9000.000
G1 E5.00000 F2400.000
G1 F1200.000
G1 X75.451 Y175.962 E0.10978
G1 X70.615 Y176.211 E0.15182
G1 X65.741 Y175.981 E0.15301
G1 X60.968 Y175.282 E0.15123
G1 X56.288 Y174.120 E0.15121
G1 X51.551 Y172.427 E0.15772
G1 X47.259 Y170.394 E0.14890
G1 X43.168 Y167.949 E0.14944
G1 X39.129 Y164.953 E0.15769
G1 X35.561 Y161.707 E0.15122
G1 X32.315 Y158.115 E0.15180
G1 X29.436 Y154.222 E0.15181
G1 X26.954 Y150.065 E0.15180
G1 X24.890 Y145.685 E0.15182
G1 X23.261 Y141.105 E0.15241
G1 X22.093 Y136.406 E0.15181
G1 X21.392 Y131.616 E0.15181
G1 X21.164 Y126.780 E0.15179
G1 X21.409 Y121.964 E0.15121
G1 X22.127 Y117.176 E0.15180
G1 X23.310 Y112.481 E0.15180
G1 X24.948 Y107.925 E0.15180
G1 X27.025 Y103.552 E0.15181
G1 X29.521 Y99.402 E0.15182
G1 X32.423 Y95.503 E0.15239
G1 X35.668 Y91.935 E0.15123
G1 X39.276 Y88.677 E0.15242
G1 X43.186 Y85.790 E0.15240
G1 X47.327 Y83.320 E0.15119
G1 X51.690 Y81.265 E0.15120
G1 X53.858 Y80.494 E0.07214
G1 X54.017 Y80.836 F9000.000
G1 F1200.000
G1 X56.351 Y80.005 E0.07768
G1 X61.011 Y78.844 E0.15056
G1 X63.419 Y78.485 E0.07635
G1 X63.770 Y78.377 E0.01152
G1 X89.284 Y75.144 E0.80636
G1 X89.893 Y75.048 E0.01933
G1 X90.481 Y74.901 E0.01902
G1 X91.039 Y74.701 E0.01858
G1 X91.575 Y74.448 E0.01857
G1 X92.083 Y74.144 E0.01857
G1 X92.559 Y73.791 E0.01858
G1 X92.998 Y73.393 E0.01857
G1 X93.395 Y72.954 E0.01857
G1 X93.748 Y72.478 E0.01858
G1 X94.053 Y71.970 E0.01857
G1 X94.306 Y71.435 E0.01857
G1 X94.506 Y70.877 E0.01858
G1 X94.649 Y70.302 E0.01857
G1 X94.736 Y69.717 E0.01856
G1 X94.749 Y69.456 E0.00820
G1 X94.778 Y58.453 E0.34497
G1 X95.051 Y57.539 E0.02991
G1 X95.446 Y56.881 F9000.000
G1 F1200.000
G1 X95.591 Y56.650 E0.00856
G1 X96.319 Y55.934 E0.03200
G1 X97.190 Y55.432 E0.03153
G1 X98.297 Y55.166 E0.03570
G1 X132.740 Y55.169 E1.07993
G1 X133.537 Y55.330 E0.02550
G1 X134.280 Y55.658 E0.02545
G1 X135.320 Y56.549 E0.04294
G1 X135.507 Y56.823 E0.01040
G1 X135.917 Y57.490 F9000.000
G1 F1200.000
G1 X136.197 Y58.306 E0.02703
G1 X136.251 Y69.454 E0.34957
G1 X136.264 Y69.717 E0.00824
G1 X136.351 Y70.302 E0.01856
G1 X136.494 Y70.877 E0.01857
G1 X136.694 Y71.435 E0.01858
G1 X136.947 Y71.970 E0.01857
G1 X137.252 Y72.478 E0.01857
G1 X137.605 Y72.954 E0.01858
G1 X138.002 Y73.393 E0.01857
G1 X138.441 Y73.791 E0.01857
G1 X138.917 Y74.144 E0.01858
G1 X139.425 Y74.448 E0.01857
G1 X139.961 Y74.701 E0.01857
G1 X140.519 Y74.901 E0.01858
G1 X141.107 Y75.048 E0.01902
G1 X141.716 Y75.144 E0.01933
G1 X167.230 Y78.377 E0.80636
G1 X167.580 Y78.485 E0.01150
G1 X169.970 Y78.840 E0.07577
G1 X174.630 Y79.999 E0.15057
G1 X177.005 Y80.845 E0.07902
G1 E-3.50000 F3600.000
;WIPE_START
G1 F7200.000
G1 X174.630 Y79.999 E-1.19715
G1 X174.165 Y79.884 E-0.22785
;WIPE_END
G1 E-0.07500 F3600.000
G1 X179.047 Y81.572 F9000.000
G1 E5.00000 F2400.000
G1 F1200.000
G1 X179.174 Y81.617 E0.00424
G1 X183.504 Y83.657 E0.15006
G1 X187.629 Y86.120 E0.15065
G1 X191.610 Y89.071 E0.15536
G1 X195.113 Y92.249 E0.14831
G1 X198.292 Y95.751 E0.14829
G1 X201.255 Y99.745 E0.15592
G1 X203.700 Y103.837 E0.14946
G1 X205.736 Y108.148 E0.14948
G1 X207.348 Y112.654 E0.15007
G1 X208.509 Y117.278 E0.14947
G1 X209.219 Y122.029 E0.15063
G1 X209.459 Y126.828 E0.15066
G1 X209.226 Y131.647 E0.15125
G1 X208.527 Y136.381 E0.15005
G1 X207.370 Y141.024 E0.15004
G1 X205.715 Y145.654 E0.15415
G1 X203.683 Y149.946 E0.14890
G1 X201.244 Y154.021 E0.14889
G1 X198.304 Y157.985 E0.15475
G1 X195.072 Y161.541 E0.15067
G1 X191.493 Y164.775 E0.15125
G1 X187.629 Y167.631 E0.15065
G1 X183.504 Y170.093 E0.15064
G1 X179.157 Y172.140 E0.15065
G1 X174.631 Y173.750 E0.15062
G1 X170.042 Y174.895 E0.14828
G1 X165.383 Y175.590 E0.14770
G1 X160.585 Y175.834 E0.15063
G1 X155.618 Y175.590 E0.15594
G1 X154.596 Y175.438 E0.03238
G1 E-3.50000 F3600.000
;WIPE_START
G1 F7200.000
G1 X155.618 Y175.590 E-0.49055
G1 X157.583 Y175.687 E-0.93445
;WIPE_END
G1 E-0.07500 F3600.000
G1 X152.068 Y175.061 F9000.000
G1 E5.00000 F2400.000
G1 F1200.000
G1 X150.958 Y174.895 E0.03518
G1 X146.387 Y173.756 E0.14771
G1 X141.688 Y172.076 E0.15648
G1 X139.494 Y171.039 E0.07610
G1 X139.003 Y170.906 E0.01595
G1 X135.031 Y169.027 E0.13777
G1 X130.315 Y167.340 E0.15703
G1 X125.457 Y166.123 E0.15704
G1 X120.502 Y165.388 E0.15704
G1 X115.500 Y165.142 E0.15703
G1 X110.498 Y165.388 E0.15703
G1 X105.543 Y166.123 E0.15704
G1 X100.685 Y167.340 E0.15704
G1 X95.969 Y169.027 E0.15703
G1 X91.997 Y170.906 E0.13778
G1 X91.504 Y171.039 E0.01601
G1 X89.157 Y172.140 E0.08128
G1 X84.722 Y173.723 E0.14767
G1 X80.154 Y174.873 E0.14769
G1 X78.889 Y175.063 E0.04010
G1 E-3.50000 F3600.000
;WIPE_START
G1 F7200.000
G1 X80.154 Y174.873 E-0.60745
G1 X81.823 Y174.453 E-0.81755
;WIPE_END
G1 E-0.07500 F3600.000
