; generated by PrusaSlicer 2.3.3+linux-x64 on 2021-10-06 at 15:23:03 UTC

; 

; external perimeters extrusion width = 0.45mm
; perimeters extrusion width = 0.45mm
; infill extrusion width = 0.45mm
; solid infill extrusion width = 0.45mm
; top infill extrusion width = 0.40mm
; support material extrusion width = 0.38mm
; first layer extrusion width = 0.42mm

M201 X500 Y500 Z100 E5000 ; sets maximum accelerations, mm/sec^2
M203 X500 Y500 Z10 E60 ; sets maximum feedrates, mm/sec
M204 P500 R1000 T500 ; sets acceleration (P, T) and retract acceleration (R), mm/sec^2
M205 X8.00 Y8.00 Z0.40 E5.00 ; sets the jerk limits, mm/sec
M205 S0 T0 ; sets the minimum extruding and travel feed rate, mm/sec
M107
;TYPE:Custom
G90 ; use absolute coordinates
M83 ; extruder relative mode
M140 S60 ; set final bed temp
M104 S150 ; set temporary nozzle temp to prevent oozing during homing
G4 S10 ; allow partial nozzle warmup
G28 ; home all axis
G1 Z50 F240
G1 X2 Y10 F3000
M104 S215 ; set final nozzle temp
M190 S60 ; wait for bed temp to stabilize
M109 S215 ; wait for nozzle temp to stabilize
G1 Z0.28 F240
G92 E0
G1 Y140 E10 F1500 ; prime the nozzle
G1 X2.3 F5000
G92 E0
G1 Y10 E10 F1200 ; prime the nozzle
G92 E0
G21 ; set units to millimeters
G90 ; use absolute coordinates
M83 ; use relative distances for extrusion
; Filament gcode
;LAYER_CHANGE
;Z:0.2
;HEIGHT:0.2
;BEFORE_LAYER_CHANGE
G92 E0
;0.2


G1 E-5.00000 F3600.000
G1 Z0.200 F9000.000
;AFTER_LAYER_CHANGE
;0.2
G1 X64.633 Y100.175
G1 E5.00000 F2400.000
M204 S500
;TYPE:Skirt
;WIDTH:0.42
G1 F1200.000
G1 X65.211 Y99.872 E0.02047
G1 X65.833 Y99.688 E0.02032
G1 X66.482 Y99.625 E0.02047
G1 X164.531 Y99.795 E3.07424
G1 X165.458 Y99.927 E0.02937
G1 X166.382 Y100.354 E0.03191
G1 X167.137 Y101.037 E0.03191
G1 X167.654 Y101.913 E0.03191
G1 X167.887 Y102.904 E0.03191
G1 X167.897 Y128.012 E0.78724
G1 X167.764 Y128.939 E0.02937
G1 X167.308 Y129.904 E0.03345
G1 X166.575 Y130.678 E0.03345
G1 X165.636 Y131.185 E0.03345
G1 X164.590 Y131.374 E0.03331
G1 X67.979 Y131.375 E3.02918
G1 X65.542 Y131.072 E0.07700
G1 X64.622 Y130.648 E0.03177
G1 X63.872 Y129.974 E0.03163
G1 X63.353 Y129.104 E0.03177
G1 X63.115 Y128.119 E0.03177
G1 X63.104 Y102.902 E0.79065
G1 X63.185 Y102.259 E0.02032
G1 X63.388 Y101.643 E0.02032
G1 X63.705 Y101.078 E0.02032
G1 X64.127 Y100.580 E0.02047
G1 X64.586 Y100.212 E0.01844
G1 X63.825 Y98.935 F9000.000
G1 F1200.000
G1 X65.792 Y98.284 E0.06495
G1 X66.634 Y98.296 E0.02641
G1 X66.887 Y98.270 E0.00798
G1 X164.995 Y98.270 E3.07610
G1 X166.558 Y98.693 E0.05078
G1 X167.652 Y99.392 E0.04070
G1 X168.591 Y100.400 E0.04320
G1 X169.108 Y101.406 E0.03545
G1 X169.422 Y102.717 E0.04229
G1 X169.422 Y128.522 E0.80909
G1 X169.047 Y129.922 E0.04544
G1 X168.484 Y130.856 E0.03421
G1 X167.689 Y131.685 E0.03601
G1 X166.566 Y132.367 E0.04118
G1 X165.412 Y132.681 E0.03750
G1 X164.380 Y132.702 E0.03238
G1 X164.113 Y132.730 E0.00841
G1 X162.695 Y132.730 E0.04446
G1 X162.090 Y132.705 E0.01898
G1 X161.851 Y132.730 E0.00755
G1 X68.425 Y132.730 E2.92929
G1 X67.820 Y132.705 E0.01898
G1 X67.581 Y132.730 E0.00755
G1 X66.025 Y132.730 E0.04878
G1 X64.713 Y132.416 E0.04231
G1 X63.794 Y131.958 E0.03218
G1 X62.714 Y130.973 E0.04585
G1 X62.206 Y130.291 E0.02667
G1 X61.578 Y128.312 E0.06509
G1 X61.578 Y102.492 E0.80957
G1 X61.876 Y101.269 E0.03947
G1 X62.285 Y100.453 E0.02862
G1 X63.183 Y99.441 E0.04243
G1 X63.778 Y98.972 E0.02375
G1 X64.010 Y99.268 F9000.000
G1 F1200.000
G1 X65.818 Y98.662 E0.05978
G1 X66.653 Y98.674 E0.02618
G1 X66.898 Y98.647 E0.00774
G1 X164.969 Y98.647 E3.07496
G1 X166.430 Y99.049 E0.04751
G1 X167.392 Y99.666 E0.03583
G1 X168.297 Y100.638 E0.04164
G1 X168.747 Y101.517 E0.03096
G1 X169.045 Y102.740 E0.03948
G1 X169.045 Y128.496 E0.80757
G1 X168.691 Y129.796 E0.04223
G1 X168.174 Y130.641 E0.03106
G1 X167.435 Y131.404 E0.03330
G1 X166.396 Y132.029 E0.03803
G1 X165.339 Y132.310 E0.03429
G1 X164.356 Y132.325 E0.03081
G1 X164.102 Y132.353 E0.00801
G1 X162.699 Y132.353 E0.04400
G1 X162.077 Y132.327 E0.01952
G1 X161.840 Y132.353 E0.00748
G1 X68.429 Y132.353 E2.92883
G1 X67.807 Y132.327 E0.01952
G1 X67.570 Y132.353 E0.00748
G1 X66.048 Y132.353 E0.04772
G1 X64.824 Y132.055 E0.03951
G1 X63.988 Y131.634 E0.02934
G1 X62.983 Y130.709 E0.04283
G1 X62.528 Y130.092 E0.02402
G1 X61.955 Y128.284 E0.05950
G1 X61.955 Y102.516 E0.80793
G1 X62.236 Y101.382 E0.03664
G1 X62.609 Y100.646 E0.02585
G1 X63.452 Y99.706 E0.03960
G1 X63.963 Y99.305 E0.02035
G1 X64.194 Y99.603 F9000.000
G1 F1200.000
G1 X64.237 Y99.569 E0.00170
G1 X65.844 Y99.039 E0.05304
G1 X66.672 Y99.051 E0.02597
G1 X66.909 Y99.024 E0.00748
G1 X164.943 Y99.024 E3.07378
G1 X166.301 Y99.404 E0.04420
G1 X167.132 Y99.940 E0.03101
G1 X168.003 Y100.875 E0.04008
G1 X168.386 Y101.629 E0.02651
G1 X168.668 Y102.764 E0.03667
G1 X168.668 Y128.470 E0.80602
G1 X168.335 Y129.668 E0.03897
G1 X167.865 Y130.424 E0.02791
G1 X167.183 Y131.123 E0.03062
G1 X166.227 Y131.691 E0.03487
G1 X165.268 Y131.939 E0.03107
G1 X164.333 Y131.948 E0.02932
G1 X164.091 Y131.976 E0.00763
G1 X162.703 Y131.976 E0.04352
G1 X162.063 Y131.949 E0.02009
G1 X161.828 Y131.976 E0.00740
G1 X68.433 Y131.976 E2.92834
G1 X67.793 Y131.949 E0.02009
G1 X67.559 Y131.976 E0.00740
G1 X66.071 Y131.976 E0.04663
G1 X64.937 Y131.694 E0.03666
G1 X64.183 Y131.310 E0.02651
G1 X63.254 Y130.445 E0.03982
G1 X62.851 Y129.895 E0.02139
G1 X62.332 Y128.255 E0.05394
G1 X62.332 Y102.540 E0.80627
G1 X62.596 Y101.496 E0.03376
G1 X62.933 Y100.842 E0.02308
G1 X63.720 Y99.972 E0.03679
G1 X64.147 Y99.640 E0.01695
G1 X64.442 Y99.888 F9000.000
G1 F1200.000
G1 X65.870 Y99.417 E0.04714
G1 X66.693 Y99.429 E0.02581
G1 X66.921 Y99.401 E0.00721
G1 X164.916 Y99.401 E3.07257
G1 X166.169 Y99.759 E0.04086
G1 X166.873 Y100.215 E0.02629
G1 X167.680 Y101.073 E0.03693
G1 X168.026 Y101.743 E0.02366
G1 X168.291 Y102.787 E0.03378
G1 X168.291 Y128.444 E0.80443
G1 X167.980 Y129.537 E0.03565
G1 X167.558 Y130.204 E0.02475
G1 X166.932 Y130.840 E0.02798
G1 X166.061 Y131.352 E0.03169
G1 X165.199 Y131.568 E0.02784
G1 X164.309 Y131.571 E0.02792
G1 X164.079 Y131.599 E0.00726
G1 X162.707 Y131.599 E0.04301
G1 X162.047 Y131.571 E0.02070
G1 X161.816 Y131.599 E0.00729
G1 X68.437 Y131.599 E2.92784
G1 X67.778 Y131.571 E0.02070
G1 X67.547 Y131.599 E0.00729
G1 X66.095 Y131.599 E0.04550
G1 X65.051 Y131.334 E0.03378
G1 X64.381 Y130.988 E0.02366
G1 X63.526 Y130.184 E0.03681
G1 X63.174 Y129.699 E0.01879
G1 X62.709 Y128.226 E0.04843
G1 X62.709 Y102.564 E0.80460
G1 X62.956 Y101.613 E0.03082
G1 X63.255 Y101.039 E0.02030
G1 X63.987 Y100.239 E0.03399
G1 X64.394 Y99.924 E0.01614
G1 X64.848 Y100.526 F9000.000
G1 F1200.000
G1 X65.922 Y100.172 E0.03546
G1 X66.739 Y100.184 E0.02561
G1 X66.947 Y100.155 E0.00661
G1 X164.861 Y100.155 E3.07002
G1 X165.901 Y100.465 E0.03403
G1 X166.358 Y100.767 E0.01719
G1 X167.039 Y101.473 E0.03076
G1 X167.309 Y101.979 E0.01796
G1 X167.537 Y102.837 E0.02784
G1 X167.537 Y128.388 E0.80114
G1 X167.274 Y129.268 E0.02879
G1 X166.950 Y129.757 E0.01839
G1 X166.435 Y130.271 E0.02282
G1 X165.735 Y130.669 E0.02524
G1 X165.072 Y130.823 E0.02135
G1 X164.261 Y130.817 E0.02544
G1 X164.053 Y130.845 E0.00659
G1 X162.735 Y130.845 E0.04132
G1 X162.558 Y130.824 E0.00560
G1 X161.999 Y130.816 E0.01752
G1 X161.790 Y130.845 E0.00661
G1 X68.465 Y130.845 E2.92614
G1 X68.288 Y130.824 E0.00560
G1 X67.729 Y130.816 E0.01752
G1 X67.520 Y130.845 E0.00661
G1 X66.145 Y130.845 E0.04312
G1 X65.287 Y130.617 E0.02784
G1 X64.781 Y130.347 E0.01796
G1 X64.074 Y129.665 E0.03080
G1 X63.823 Y129.310 E0.01365
G1 X63.463 Y128.168 E0.03754
G1 X63.463 Y102.615 E0.80119
G1 X63.671 Y101.853 E0.02477
G1 X63.895 Y101.440 E0.01474
G1 X64.516 Y100.777 E0.02846
G1 X64.800 Y100.562 E0.01118
G1 X65.948 Y100.549 F9000.000
G1 F1200.000
G1 X66.764 Y100.561 E0.02559
G1 X66.962 Y100.532 E0.00626
G1 X164.832 Y100.532 E3.06866
G1 X165.763 Y100.817 E0.03052
G1 X166.102 Y101.045 E0.01282
G1 X166.721 Y101.678 E0.02775
G1 X166.951 Y102.101 E0.01510
G1 X167.160 Y102.863 E0.02478
G1 X167.160 Y128.359 E0.79941
G1 X166.922 Y129.129 E0.02526
G1 X166.671 Y129.502 E0.01412
G1 X166.188 Y129.986 E0.02143
G1 X165.577 Y130.326 E0.02191
G1 X165.014 Y130.450 E0.01809
G1 X164.236 Y130.439 E0.02440
G1 X164.038 Y130.468 E0.00626
G1 X162.747 Y130.468 E0.04047
G1 X162.584 Y130.448 E0.00515
G1 X161.973 Y130.439 E0.01916
G1 X161.776 Y130.468 E0.00626
G1 X68.477 Y130.468 E2.92530
G1 X68.314 Y130.448 E0.00515
G1 X67.703 Y130.439 E0.01916
G1 X67.506 Y130.468 E0.00626
G1 X66.171 Y130.468 E0.04185
G1 X65.409 Y130.259 E0.02478
G1 X64.986 Y130.029 E0.01510
G1 X64.352 Y129.409 E0.02781
G1 X64.149 Y129.118 E0.01111
G1 X63.840 Y128.139 E0.03219
G1 X63.840 Y102.642 E0.79945
G1 X64.028 Y101.978 E0.02162
G1 X64.213 Y101.645 E0.01196
G1 X64.777 Y101.049 E0.02573
G1 X65.049 Y100.846 E0.01062
G1 X65.891 Y100.568 E0.02782
G1 X65.974 Y100.927 F9000.000
G1 F1200.000
G1 X66.792 Y100.939 E0.02565
G1 X66.978 Y100.909 E0.00589
G1 X68.256 Y100.909 E0.04007
G1 X68.365 Y100.925 E0.00346
G1 X68.474 Y100.909 E0.00346
G1 X69.764 Y100.909 E0.04044
G1 X69.873 Y100.925 E0.00346
G1 X69.983 Y100.909 E0.00346
G1 X71.272 Y100.909 E0.04044
G1 X71.382 Y100.925 E0.00346
G1 X71.491 Y100.909 E0.00346
G1 X72.781 Y100.909 E0.04044
G1 X72.890 Y100.925 E0.00346
G1 X72.999 Y100.909 E0.00346
G1 X74.289 Y100.909 E0.04044
G1 X74.398 Y100.925 E0.00346
G1 X74.508 Y100.909 E0.00346
G1 X75.797 Y100.909 E0.04044
G1 X75.907 Y100.925 E0.00346
G1 X76.016 Y100.909 E0.00346
G1 X77.306 Y100.909 E0.04044
G1 X77.415 Y100.925 E0.00346
G1 X77.524 Y100.909 E0.00346
G1 X78.814 Y100.909 E0.04044
G1 X78.923 Y100.925 E0.00346
G1 X79.033 Y100.909 E0.00346
G1 X80.322 Y100.909 E0.04044
G1 X80.432 Y100.925 E0.00346
G1 X80.541 Y100.909 E0.00346
G1 X81.831 Y100.909 E0.04044
G1 X81.940 Y100.925 E0.00346
G1 X82.049 Y100.909 E0.00346
G1 X83.339 Y100.909 E0.04044
G1 X83.448 Y100.925 E0.00346
G1 X83.557 Y100.909 E0.00346
G1 X84.847 Y100.909 E0.04044
G1 X84.957 Y100.925 E0.00346
G1 X85.066 Y100.909 E0.00346
G1 X86.356 Y100.909 E0.04044
G1 X86.465 Y100.925 E0.00346
G1 X86.574 Y100.909 E0.00346
G1 X87.864 Y100.909 E0.04044
G1 X87.973 Y100.925 E0.00346
G1 X88.082 Y100.909 E0.00346
G1 X89.372 Y100.909 E0.04044
G1 X89.482 Y100.925 E0.00346
G1 X89.591 Y100.909 E0.00346
G1 X90.881 Y100.909 E0.04044
G1 X90.990 Y100.925 E0.00346
G1 X91.099 Y100.909 E0.00346
G1 X92.389 Y100.909 E0.04044
G1 X92.498 Y100.925 E0.00346
G1 X92.607 Y100.909 E0.00346
G1 X93.897 Y100.909 E0.04044
G1 X94.006 Y100.925 E0.00346
G1 X94.116 Y100.909 E0.00346
G1 X95.406 Y100.909 E0.04044
G1 X95.515 Y100.925 E0.00346
G1 X95.624 Y100.909 E0.00346
G1 X96.914 Y100.909 E0.04044
G1 X97.023 Y100.925 E0.00346
G1 X97.132 Y100.909 E0.00346
G1 X98.422 Y100.909 E0.04044
G1 X98.531 Y100.925 E0.00346
G1 X98.641 Y100.909 E0.00346
G1 X99.931 Y100.909 E0.04044
G1 X100.040 Y100.925 E0.00346
G1 X100.149 Y100.909 E0.00346
G1 X101.439 Y100.909 E0.04044
G1 X101.548 Y100.925 E0.00346
G1 X101.657 Y100.909 E0.00346
G1 X102.947 Y100.909 E0.04044
G1 X103.056 Y100.925 E0.00346
G1 X103.166 Y100.909 E0.00346
G1 X104.455 Y100.909 E0.04044
G1 X104.565 Y100.925 E0.00346
G1 X104.674 Y100.909 E0.00346
G1 X105.964 Y100.909 E0.04044
G1 X106.073 Y100.925 E0.00346
G1 X106.182 Y100.909 E0.00346
G1 X107.472 Y100.909 E0.04044
G1 X107.581 Y100.925 E0.00346
G1 X107.691 Y100.909 E0.00346
G1 X108.980 Y100.909 E0.04044
G1 X109.090 Y100.925 E0.00346
G1 X109.199 Y100.909 E0.00346
G1 X110.489 Y100.909 E0.04044
G1 X110.598 Y100.925 E0.00346
G1 X110.707 Y100.909 E0.00346
G1 X111.997 Y100.909 E0.04044
G1 X112.106 Y100.925 E0.00346
G1 X112.216 Y100.909 E0.00346
G1 X113.505 Y100.909 E0.04044
G1 X113.615 Y100.925 E0.00346
G1 X113.724 Y100.909 E0.00346
G1 X115.014 Y100.909 E0.04044
G1 X115.123 Y100.925 E0.00346
G1 X115.232 Y100.909 E0.00346
G1 X116.522 Y100.909 E0.04044
G1 X116.631 Y100.925 E0.00346
G1 X116.740 Y100.909 E0.00346
G1 X118.030 Y100.909 E0.04044
G1 X118.140 Y100.925 E0.00346
G1 X118.249 Y100.909 E0.00346
G1 X119.539 Y100.909 E0.04044
G1 X119.648 Y100.925 E0.00346
G1 X119.757 Y100.909 E0.00346
G1 X121.047 Y100.909 E0.04044
G1 X121.156 Y100.925 E0.00346
G1 X121.265 Y100.909 E0.00346
G1 X122.555 Y100.909 E0.04044
G1 X122.665 Y100.925 E0.00346
G1 X122.774 Y100.909 E0.00346
G1 X124.064 Y100.909 E0.04044
G1 X124.173 Y100.925 E0.00346
G1 X124.282 Y100.909 E0.00346
G1 X125.572 Y100.909 E0.04044
G1 X125.681 Y100.925 E0.00346
G1 X125.790 Y100.909 E0.00346
G1 X127.080 Y100.909 E0.04044
G1 X127.189 Y100.925 E0.00346
G1 X127.299 Y100.909 E0.00346
G1 X128.589 Y100.909 E0.04044
G1 X128.698 Y100.925 E0.00346
G1 X128.807 Y100.909 E0.00346
G1 X130.097 Y100.909 E0.04044
G1 X130.206 Y100.925 E0.00346
G1 X130.315 Y100.909 E0.00346
G1 X131.605 Y100.909 E0.04044
G1 X131.714 Y100.925 E0.00346
G1 X131.824 Y100.909 E0.00346
G1 X133.114 Y100.909 E0.04044
G1 X133.223 Y100.925 E0.00346
G1 X133.332 Y100.909 E0.00346
G1 X134.622 Y100.909 E0.04044
G1 X134.731 Y100.925 E0.00346
G1 X134.840 Y100.909 E0.00346
G1 X136.130 Y100.909 E0.04044
G1 X136.239 Y100.925 E0.00346
G1 X136.349 Y100.909 E0.00346
G1 X137.638 Y100.909 E0.04044
G1 X137.748 Y100.925 E0.00346
G1 X137.857 Y100.909 E0.00346
G1 X139.147 Y100.909 E0.04044
G1 X139.256 Y100.925 E0.00346
G1 X139.365 Y100.909 E0.00346
G1 X140.655 Y100.909 E0.04044
G1 X140.764 Y100.925 E0.00346
G1 X140.874 Y100.909 E0.00346
G1 X142.163 Y100.909 E0.04044
G1 X142.273 Y100.925 E0.00346
G1 X142.382 Y100.909 E0.00346
G1 X143.672 Y100.909 E0.04044
G1 X143.781 Y100.925 E0.00346
G1 X143.890 Y100.909 E0.00346
G1 X145.180 Y100.909 E0.04044
G1 X145.289 Y100.925 E0.00346
G1 X145.399 Y100.909 E0.00346
G1 X146.688 Y100.909 E0.04044
G1 X146.798 Y100.925 E0.00346
G1 X146.907 Y100.909 E0.00346
G1 X148.197 Y100.909 E0.04044
G1 X148.306 Y100.925 E0.00346
G1 X148.415 Y100.909 E0.00346
G1 X149.705 Y100.909 E0.04044
G1 X149.814 Y100.925 E0.00346
G1 X149.923 Y100.909 E0.00346
G1 X151.213 Y100.909 E0.04044
G1 X151.323 Y100.925 E0.00346
G1 X151.432 Y100.909 E0.00346
G1 X152.722 Y100.909 E0.04044
G1 X152.831 Y100.925 E0.00346
G1 X152.940 Y100.909 E0.00346
G1 X154.230 Y100.909 E0.04044
G1 X154.339 Y100.925 E0.00346
G1 X154.448 Y100.909 E0.00346
G1 X155.738 Y100.909 E0.04044
G1 X155.848 Y100.925 E0.00346
G1 X155.957 Y100.909 E0.00346
G1 X157.247 Y100.909 E0.04044
G1 X157.356 Y100.925 E0.00346
G1 X157.465 Y100.909 E0.00346
G1 X158.755 Y100.909 E0.04044
G1 X158.864 Y100.925 E0.00346
G1 X158.973 Y100.909 E0.00346
G1 X160.263 Y100.909 E0.04044
G1 X160.372 Y100.925 E0.00346
G1 X160.482 Y100.909 E0.00346
G1 X161.772 Y100.909 E0.04044
G1 X161.881 Y100.925 E0.00346
G1 X161.990 Y100.909 E0.00346
G1 X163.280 Y100.909 E0.04044
G1 X163.389 Y100.925 E0.00346
G1 X163.498 Y100.909 E0.00346
G1 X164.802 Y100.909 E0.04089
G1 X165.621 Y101.168 E0.02691
G1 X165.847 Y101.323 E0.00860
G1 X166.405 Y101.885 E0.02484
G1 X166.595 Y102.226 E0.01224
G1 X166.783 Y102.890 E0.02163
G1 X166.783 Y128.329 E0.79762
G1 X166.573 Y128.986 E0.02163
G1 X166.393 Y129.247 E0.00995
G1 X165.941 Y129.699 E0.02004
G1 X165.422 Y129.982 E0.01851
G1 X164.998 Y130.073 E0.01359
G1 X164.208 Y130.061 E0.02479
G1 X164.022 Y130.091 E0.00589
G1 X162.761 Y130.091 E0.03955
G1 X162.613 Y130.071 E0.00467
G1 X161.945 Y130.061 E0.02094
G1 X161.760 Y130.091 E0.00589
G1 X160.482 Y130.091 E0.04007
G1 X160.372 Y130.075 E0.00346
G1 X160.263 Y130.091 E0.00346
G1 X158.973 Y130.091 E0.04044
G1 X158.864 Y130.075 E0.00346
G1 X158.755 Y130.091 E0.00346
G1 X157.465 Y130.091 E0.04044
G1 X157.356 Y130.075 E0.00346
G1 X157.247 Y130.091 E0.00346
G1 X155.957 Y130.091 E0.04044
G1 X155.848 Y130.075 E0.00346
G1 X155.738 Y130.091 E0.00346
G1 X154.448 Y130.091 E0.04044
G1 X154.339 Y130.075 E0.00346
G1 X154.230 Y130.091 E0.00346
G1 X152.940 Y130.091 E0.04044
G1 X152.831 Y130.075 E0.00346
G1 X152.722 Y130.091 E0.00346
G1 X151.432 Y130.091 E0.04044
G1 X151.323 Y130.075 E0.00346
G1 X151.213 Y130.091 E0.00346
G1 X149.923 Y130.091 E0.04044
G1 X149.814 Y130.075 E0.00346
G1 X149.705 Y130.091 E0.00346
G1 X148.415 Y130.091 E0.04044
G1 X148.306 Y130.075 E0.00346
G1 X148.197 Y130.091 E0.00346
G1 X146.907 Y130.091 E0.04044
G1 X146.798 Y130.075 E0.00346
G1 X146.688 Y130.091 E0.00346
G1 X145.399 Y130.091 E0.04044
